X: 2
T: Within A Mile Of Dublin
R: reel
M: 4/4
L: 1/8
K: Dmix
FG|ADDE FEFG|ADDB c2BG|ADDE FD(3EFG|ABcA G2FG||ADDE FEFG|ADDB cABG|ADDE FD(3EFG|AdcA G2FG||Add^c AGFG|Adde fde^c|Add^c AGFG|AdcA G2FG||Add^c AGFG|Adde fefg|af(3gfe fde^c|d^cAF G2||


Tune 125	Setting 12728

